X:1
T:Galway Bay
M:4/4
L:1/8
K:Eb
 B,E| GG GG GG FE| E D4 z2 B| BF FG AA G^F| G4 z2| B,E| GG GG GB AG|\
 F C4 z2 =E| F=E FG AD GF| E4 z2|
